packages/bezier-icons/icons/quote.svg

<svg width="24" height="24" viewBox="0 0 24 24" fill="none" xmlns="http://www.w3.org/2000/svg">
<path fill-rule="evenodd" clip-rule="evenodd" d="M11.4963 5.06703C11.4963 5.69269 10.9846 6.18911 10.3692 6.30157C8.28157 6.68302 6.55728 8.10483 5.75333 10.01C5.83468 10.0034 5.91694 10 6 10H8C9.65685 10 11 11.3431 11 13V15C11 16.6569 9.65685 18 8 18H6C4.34315 18 3 16.6569 3 15V14.2411V13V12.4305C3 8.12129 6.20806 4.56135 10.3662 4.0087C10.9864 3.92626 11.4963 4.44138 11.4963 5.06703ZM20.9963 5.06703C20.9963 5.69269 20.4846 6.18911 19.8692 6.30157C17.7816 6.68302 16.0573 8.10483 15.2533 10.01C15.3347 10.0034 15.4169 9.99999 15.5 9.99999H17.5C19.1569 9.99999 20.5 11.3431 20.5 13V15C20.5 16.6568 19.1569 18 17.5 18H15.5C13.8431 18 12.5 16.6568 12.5 15V14.2411V13V12.4305C12.5 8.12129 15.7081 4.56135 19.8662 4.0087C20.4864 3.92626 20.9963 4.44138 20.9963 5.06703Z" fill="#313234"/>
</svg>

<svg xmlns="http://www.w3.org/2000/svg" width="24" height="24" fill="none" viewBox="0 0 24 24"><path fill="#313234" fill-rule="evenodd" d="M11.496 5.067c0 .626-.511 1.122-1.127 1.235a6.24 6.24 0 0 0-4.616 3.708A3 3 0 0 1 6 10h2a3 3 0 0 1 3 3v2a3 3 0 0 1-3 3H6a3 3 0 0 1-3-3v-2.57c0-4.309 3.208-7.869 7.366-8.421.62-.083 1.13.432 1.13 1.058m9.5 0c0 .626-.511 1.122-1.127 1.235a6.24 6.24 0 0 0-4.616 3.708A3 3 0 0 1 15.5 10h2a3 3 0 0 1 3 3v2a3 3 0 0 1-3 3h-2a3 3 0 0 1-3-3v-2.57c0-4.309 3.208-7.869 7.366-8.421.62-.083 1.13.432 1.13 1.058" clip-rule="evenodd"/></svg>
